X:7
T:The Guns of the Magnificent Seven
T:Fintan McManus's
R:Reel
O:Ireland
A:Donegal
M:4/4
Q:490
D:Altan: Island Angel (1993)
D:Nomos: Nomos
D:Nomos: I Won't Be Afraid Any More
C:Fintan McManus
Z:John Relph
K:Am
D|:EAAG ABcA|EA^FA GED^F|EAAG ABcd|egdB BAA2:|
|:ABcd eAA^f|gedc BAGB|ABcd eaa^f|gedB BAA2:|
|:eg dB A2|egdB GA(3Bcd|eBdB Aa2g|egdB BAA2:|
